packages/icons/src/emoji/svg/purse.svg

<svg width="120" height="120" viewBox="0 0 120 120" fill="none" xmlns="http://www.w3.org/2000/svg">
<path d="M64.1534 5.04374C64.9878 3.21561 66.544 2.69999 67.8378 2.64374C69.8065 2.54999 71.869 3.90936 73.8097 5.51249C75.1878 7.06874 76.8378 8.26874 78.7503 9.11249C80.0722 9.58124 81.3847 9.67499 82.7159 9.60936C84.5909 9.51561 86.494 9.10311 88.3784 9.00936L88.4815 8.99999L89.3347 8.92499C91.4909 8.82186 93.5253 9.32811 95.4565 10.4437C97.2284 12.0562 98.0065 14.0625 97.7628 16.4812C97.3503 18.4781 97.7065 20.3062 98.8222 21.9656C100.744 23.3156 102.76 24.4969 104.878 25.5C107.072 26.7 108.45 28.5094 109.05 30.9187C109.266 33.4687 108.085 35.1 105.535 35.8031C102.216 36.6375 97.7534 36.6375 93.994 39.5437C88.5003 44.1281 86.7753 48.75 84.3847 49.4531C83.2128 48.1219 75.9003 42.4687 63.6378 39.7594C61.444 32.1937 60.1128 13.9312 64.1534 5.04374Z" fill="#FCC21B"/>
<path d="M76.5283 38.1469C78.6846 33.8344 84.8252 26.25 86.2971 27.75C87.7502 29.3813 84.4033 37.8563 82.0502 42.0094C81.2158 41.1281 78.5252 39.2813 77.3533 38.9719" fill="#D19B15"/>
<path d="M87.3755 51.9561C86.1098 51.9561 84.8724 51.3093 84.1692 50.1468C77.7192 39.5343 63.113 40.6499 62.9724 40.6686C60.9099 40.8374 59.0911 39.3186 58.913 37.2655C58.8258 36.2779 59.1327 35.2959 59.7667 34.5337C60.4007 33.7715 61.3104 33.2909 62.2974 33.1968C63.0849 33.1218 81.6755 31.5936 90.5817 46.2655C91.6599 48.0374 91.088 50.3436 89.3255 51.4124C88.7067 51.778 88.0411 51.9561 87.3755 51.9561Z" fill="#8D6E63"/>
<path d="M90.0564 114.441C73.997 118.397 51.6752 118.116 35.7283 114.966C20.8033 112.013 9.37517 103.209 10.6877 85.8845C12.0189 68.3532 23.6345 51.8438 39.6095 44.5688C55.0689 37.5282 75.8158 34.097 86.747 50.072C89.4658 54.047 94.6595 62.8688 94.9033 67.2001C94.9221 67.547 94.9408 67.8563 95.0158 68.1563C95.0345 69.2438 95.4752 70.3407 96.5439 71.147C103.416 76.3501 108.422 83.2501 109.341 92.7095C110.428 103.988 99.7595 112.05 90.0564 114.441Z" fill="#FCC21B"/>
<path d="M75.8154 85.4346C73.8654 82.2658 70.2748 78.8252 66.8811 75.8721L69.5154 68.5783C71.8592 70.4065 73.9217 72.1221 75.5342 73.6033C75.7967 73.8565 76.2092 73.8752 76.5092 73.6596L82.5467 69.169C82.7154 69.0377 82.8186 68.8502 82.8467 68.6346C82.8567 68.5293 82.8443 68.4231 82.8104 68.3229C82.7765 68.2227 82.7218 68.1309 82.6498 68.0533C80.8592 66.0565 76.9779 62.5596 72.7311 59.6815L74.2779 55.4065C74.4561 54.919 74.2123 54.3846 73.7154 54.1971L66.6186 51.6283C66.1311 51.4502 65.5873 51.7033 65.4092 52.1908L64.2561 55.3877C57.5717 53.3158 52.2654 53.9815 48.1029 57.4596C44.8404 60.1971 43.4342 64.1065 44.4279 67.6502C45.4404 71.4283 48.4029 74.0158 52.1529 77.2877L52.6311 77.7096C53.5029 78.4596 54.4311 79.2377 55.3404 80.0158L52.1342 88.8846C47.9248 86.1283 44.3998 82.3127 43.7998 81.4783C43.6874 81.3234 43.5203 81.2168 43.3324 81.1803C43.1444 81.1437 42.9496 81.1799 42.7873 81.2815L35.8311 85.7252C35.6623 85.8283 35.5404 86.0065 35.4936 86.2127C35.4561 86.4096 35.4936 86.6158 35.6061 86.7846C37.6967 89.9346 41.1186 93.4596 44.7654 96.2158C45.6373 96.8721 46.9498 97.7908 48.5623 98.7565L47.3529 102.085C47.1842 102.572 47.4279 103.106 47.9154 103.285L55.0217 105.863C55.5092 106.041 56.0529 105.788 56.2311 105.3L57.2342 102.525C63.7217 104.288 69.4217 103.266 73.8279 99.4971C78.0842 95.8502 78.8154 90.7315 75.8154 85.4346ZM61.1061 64.1252L59.1654 69.4971C57.3561 68.0908 56.3904 67.0315 57.0748 65.5127C57.7873 63.9565 59.5592 63.8533 61.1061 64.1252ZM63.0279 86.5315C64.2748 87.7408 65.1561 88.8565 65.2404 89.8783C65.2779 90.4596 65.0623 91.0221 64.5561 91.6033C63.6748 92.6252 62.2686 92.8221 60.8154 92.644L63.0279 86.5315Z" fill="#424242"/>
</svg>

<svg xmlns="http://www.w3.org/2000/svg" fill="none" aria-hidden="true" data-slot="icon" viewBox="0 0 120 120"><path fill="#FCC21B" d="M64.153 5.044c.835-1.828 2.391-2.344 3.685-2.4 1.969-.094 4.031 1.265 5.972 2.868a14.15 14.15 0 0 0 4.94 3.6c1.322.47 2.635.563 3.966.497 1.875-.093 3.778-.506 5.662-.6L88.481 9l.854-.075c2.156-.103 4.19.403 6.122 1.519 1.771 1.612 2.55 3.618 2.306 6.037-.413 1.997-.056 3.825 1.06 5.485a41 41 0 0 0 6.055 3.534c2.194 1.2 3.572 3.01 4.172 5.419.216 2.55-.965 4.181-3.515 4.884-3.319.835-7.782.835-11.541 3.74-5.494 4.585-7.219 9.207-9.61 9.91-1.171-1.331-8.484-6.984-20.746-9.694-2.194-7.565-3.525-25.828.515-34.715"/><path fill="#D19B15" d="M76.528 38.147c2.157-4.313 8.297-11.897 9.77-10.397 1.452 1.631-1.895 10.106-4.248 14.26-.834-.882-3.525-2.729-4.697-3.038"/><path fill="#8D6E63" d="M87.376 51.956a3.75 3.75 0 0 1-3.207-1.81c-6.45-10.612-21.056-9.496-21.197-9.477-2.062.168-3.88-1.35-4.059-3.403a3.755 3.755 0 0 1 3.384-4.07c.788-.074 19.379-1.602 28.285 13.07a3.746 3.746 0 0 1-1.256 5.146 3.8 3.8 0 0 1-1.95.544"/><path fill="#FCC21B" d="M90.056 114.441c-16.059 3.956-38.38 3.675-54.328.525-14.925-2.953-26.353-11.757-25.04-29.081 1.33-17.532 12.946-34.041 28.921-41.316 15.46-7.04 36.207-10.472 47.138 5.503 2.719 3.975 7.912 12.797 8.156 17.128.02.347.038.656.113.956a3.73 3.73 0 0 0 1.528 2.991c6.872 5.203 11.878 12.103 12.797 21.563 1.087 11.278-9.581 19.34-19.285 21.731"/><path fill="#424242" d="M75.815 85.435c-1.95-3.17-5.54-6.61-8.934-9.563l2.634-7.294c2.344 1.828 4.407 3.544 6.02 5.025a.764.764 0 0 0 .974.057l6.038-4.491a.8.8 0 0 0 .3-.534.75.75 0 0 0-.197-.582c-1.79-1.996-5.672-5.493-9.919-8.371l1.547-4.276a.94.94 0 0 0-.563-1.209l-7.096-2.569a.946.946 0 0 0-1.21.563l-1.153 3.197c-6.684-2.072-11.99-1.407-16.153 2.072-3.263 2.737-4.669 6.646-3.675 10.19 1.012 3.778 3.975 6.366 7.725 9.638l.478.422c.872.75 1.8 1.528 2.71 2.306l-3.207 8.869c-4.21-2.757-7.734-6.572-8.334-7.407a.756.756 0 0 0-1.013-.197l-6.956 4.444a.77.77 0 0 0-.337.488.77.77 0 0 0 .112.572c2.09 3.15 5.513 6.675 9.16 9.43a44 44 0 0 0 3.796 2.541l-1.21 3.329a.944.944 0 0 0 .563 1.2l7.107 2.578a.946.946 0 0 0 1.21-.563l1.002-2.775c6.488 1.763 12.188.741 16.594-3.028 4.256-3.647 4.987-8.766 1.987-14.062m-14.709-21.31-1.94 5.372c-1.81-1.406-2.776-2.466-2.091-3.984.712-1.557 2.484-1.66 4.031-1.388m1.922 22.406c1.247 1.21 2.128 2.325 2.212 3.347.038.582-.178 1.144-.684 1.725-.881 1.022-2.287 1.22-3.74 1.041z"/></svg>
